;FLAVOR:Marlin
;TIME:20994
;Filament used: 12.5956m
;Layer height: 0.2
;MINX:5.139
;MINY:14.576
;MINZ:0.2
;MAXX:128.985
;MAXY:220.424
;MAXZ:9.6
;Generated with Cura_SteamEngine 4.4.0
M140 S50
M105
M190 S50
M104 S200
M105
M109 S200
M82 ;absolute extrusion mode
M201 X500.00 Y500.00 Z100.00 E5000.00 ;Setup machine max acceleration
M203 X500.00 Y500.00 Z10.00 E50.00 ;Setup machine max feedrate
M204 P500.00 R1000.00 T500.00 ;Setup Print/Retract/Travel acceleration
M205 X8.00 Y8.00 Z0.40 E5.00 ;Setup Jerk
M220 S100 ;Reset Feedrate
M221 S100 ;Reset Flowrate

G28 ;Home

G92 E0 ;Reset Extruder
G1 Z2.0 F3000 ;Move Z Axis up
G1 X10.1 Y20 Z0.28 F5000.0 ;Move to start position
G1 X10.1 Y200.0 Z0.28 F1500.0 E15 ;Draw the first line
G1 X10.4 Y200.0 Z0.28 F5000.0 ;Move to side a little
G1 X10.4 Y20 Z0.28 F1500.0 E30 ;Draw the second line
G92 E0 ;Reset Extruder
G1 Z2.0 F3000 ;Move Z Axis up

G92 E0
G92 E0
G1 F1500 E-6.5
;LAYER_COUNT:48
;LAYER:0
M107
G0 F6000 X11.471 Y17.068 Z0.2
;TYPE:SKIRT
G1 F1500 E0
G1 F1200 X11.856 Y16.816 E0.01107
G1 X12.153 Y16.634 E0.01944
G1 X12.476 Y16.447 E0.02842
G1 X12.784 Y16.278 E0.03687
G1 X13.147 Y16.09 E0.0467
G1 X13.458 Y15.94 E0.055
G1 X13.809 Y15.782 E0.06426
G1 X14.133 Y15.645 E0.07272
G1 X14.565 Y15.477 E0.08387
G1 X14.895 Y15.36 E0.09229
G1 X15.27 Y15.238 E0.10177
G1 X15.605 Y15.138 E0.11018
G1 X15.997 Y15.032 E0.11995
G1 X16.335 Y14.95 E0.12831
G1 X16.751 Y14.861 E0.13854
G1 X17.096 Y14.797 E0.14698
G1 X17.491 Y14.734 E0.1566
G1 X17.837 Y14.688 E0.165
G1 X18.262 Y14.643 E0.17528
G1 X18.61 Y14.616 E0.18367
G1 X18.794 Y14.604 E0.18811
G1 X19.11 Y14.587 E0.19572
G1 X19.529 Y14.576 E0.2058
G1 X73.848 Y14.578 E1.51217
G1 X114.562 Y14.577 E2.49135
G1 X114.964 Y14.587 E2.50102
G1 X115.487 Y14.614 E2.51361
G1 X115.997 Y14.658 E2.52593
G1 X116.447 Y14.711 E2.53682
G1 X116.871 Y14.772 E2.54713
G1 X117.216 Y14.832 E2.55555
G1 X117.65 Y14.921 E2.5662
G1 X117.989 Y15 E2.57457
G1 X118.368 Y15.098 E2.58399
G1 X118.703 Y15.194 E2.59237
G1 X119.114 Y15.324 E2.60274
G1 X119.445 Y15.439 E2.61116
G1 X119.711 Y15.537 E2.61798
G1 X119.94 Y15.626 E2.62389
G1 X120.305 Y15.778 E2.6334
G1 X120.624 Y15.921 E2.64181
G1 X121.086 Y16.147 E2.65418
G1 X121.486 Y16.359 E2.66506
G1 X121.785 Y16.526 E2.6733
G1 X121.996 Y16.65 E2.67919
G1 X122.319 Y16.851 E2.68834
G1 X122.612 Y17.043 E2.69676
G1 X122.934 Y17.266 E2.70618
G1 X123.215 Y17.471 E2.71455
G1 X123.561 Y17.738 E2.72506
G1 X123.832 Y17.96 E2.73348
G1 X124.13 Y18.217 E2.74295
G1 X124.389 Y18.452 E2.75136
G1 X124.697 Y18.747 E2.76161
G1 X124.942 Y18.995 E2.77
G1 X125.234 Y19.307 E2.78028
G1 X125.465 Y19.568 E2.78866
G1 X125.717 Y19.868 E2.79808
G1 X125.936 Y20.142 E2.80652
G1 X126.189 Y20.476 E2.81659
G1 X126.392 Y20.76 E2.82499
G1 X126.634 Y21.12 E2.83542
G1 X126.821 Y21.415 E2.84382
G1 X127.001 Y21.714 E2.85222
G1 X127.174 Y22.016 E2.86059
G1 X127.44 Y22.522 E2.87433
G1 X127.637 Y22.933 E2.8853
G1 X127.796 Y23.288 E2.89465
G1 X127.931 Y23.61 E2.90305
G1 X128.101 Y24.052 E2.91444
G1 X128.216 Y24.381 E2.92282
G1 X128.329 Y24.73 E2.93164
G1 X128.429 Y25.066 E2.94007
G1 X128.533 Y25.452 E2.94969
G1 X128.615 Y25.79 E2.95805
G1 X128.711 Y26.245 E2.96924
G1 X128.773 Y26.589 E2.97764
G1 X128.821 Y26.888 E2.98492
G1 X128.855 Y27.13 E2.9908
G1 X128.894 Y27.457 E2.99872
G1 X128.928 Y27.805 E3.00713
G1 X128.96 Y28.288 E3.01877
G1 X128.98 Y28.855 E3.03242
G1 X128.985 Y29.13 E3.03903
G1 X128.984 Y83.462 E4.34572
G1 X128.984 Y192.385 E6.96533
G1 X128.985 Y206 E7.29277
G1 X128.978 Y206.326 E7.30061
G1 X128.967 Y206.589 E7.30694
G1 X128.957 Y206.779 E7.31152
G1 X128.934 Y207.126 E7.31988
G1 X128.882 Y207.643 E7.33238
G1 X128.822 Y208.092 E7.34327
G1 X128.778 Y208.382 E7.35033
G1 X128.736 Y208.626 E7.35628
G1 X128.634 Y209.121 E7.36844
G1 X128.529 Y209.559 E7.37927
G1 X128.41 Y209.999 E7.39023
G1 X128.309 Y210.333 E7.39862
G1 X128.178 Y210.728 E7.40863
G1 X128.059 Y211.057 E7.41705
G1 X127.962 Y211.312 E7.42361
G1 X127.87 Y211.541 E7.42954
G1 X127.708 Y211.914 E7.43932
G1 X127.561 Y212.231 E7.44773
G1 X127.379 Y212.598 E7.45758
G1 X127.216 Y212.906 E7.46596
G1 X127.001 Y213.287 E7.47648
G1 X126.82 Y213.587 E7.48491
G1 X126.617 Y213.905 E7.49398
G1 X126.423 Y214.194 E7.50235
G1 X126.16 Y214.563 E7.51325
G1 X125.949 Y214.841 E7.52164
G1 X125.69 Y215.164 E7.5316
G1 X125.464 Y215.431 E7.54001
G1 X125.211 Y215.715 E7.54916
G1 X124.972 Y215.971 E7.55759
G1 X124.685 Y216.263 E7.56743
G1 X124.434 Y216.505 E7.57582
G1 X124.129 Y216.784 E7.58576
G1 X123.866 Y217.012 E7.59413
G1 X123.54 Y217.28 E7.60428
G1 X123.263 Y217.495 E7.61271
G1 X122.94 Y217.732 E7.62235
G1 X122.653 Y217.932 E7.63076
G1 X122.275 Y218.18 E7.64163
G1 X121.977 Y218.363 E7.65004
G1 X121.658 Y218.548 E7.65891
G1 X121.353 Y218.716 E7.66729
G1 X120.961 Y218.918 E7.67789
G1 X120.648 Y219.068 E7.68624
G1 X120.296 Y219.226 E7.69552
G1 X119.972 Y219.362 E7.70397
G1 X119.579 Y219.515 E7.71411
G1 X119.249 Y219.633 E7.72254
G1 X118.86 Y219.76 E7.73238
G1 X118.526 Y219.86 E7.74077
G1 X118.144 Y219.964 E7.75029
G1 X117.805 Y220.047 E7.75868
G1 X117.355 Y220.143 E7.76975
G1 X117.011 Y220.206 E7.77816
G1 X116.634 Y220.266 E7.78734
G1 X116.288 Y220.312 E7.79574
G1 X115.862 Y220.357 E7.80604
G1 X115.513 Y220.384 E7.81446
G1 X115.33 Y220.396 E7.81887
G1 X115.014 Y220.413 E7.82648
G1 X114.595 Y220.424 E7.83656
G1 X60.276 Y220.422 E9.14294
G1 X19.562 Y220.423 E10.12211
G1 X19.16 Y220.413 E10.13178
G1 X18.637 Y220.386 E10.14438
G1 X18.127 Y220.342 E10.15669
G1 X17.677 Y220.289 E10.16758
G1 X17.253 Y220.228 E10.17789
G1 X16.908 Y220.168 E10.18631
G1 X16.474 Y220.079 E10.19696
G1 X16.135 Y220 E10.20533
G1 X15.756 Y219.902 E10.21475
G1 X15.421 Y219.806 E10.22313
G1 X15.01 Y219.676 E10.2335
G1 X14.679 Y219.561 E10.24193
G1 X14.413 Y219.463 E10.24874
G1 X14.184 Y219.374 E10.25465
G1 X13.819 Y219.222 E10.26416
G1 X13.5 Y219.079 E10.27257
G1 X13.123 Y218.897 E10.28264
G1 X12.812 Y218.737 E10.29105
G1 X12.443 Y218.534 E10.30118
G1 X12.142 Y218.358 E10.30956
G1 X11.794 Y218.142 E10.31941
G1 X11.502 Y217.95 E10.32782
G1 X11.182 Y217.729 E10.33717
G1 X10.899 Y217.522 E10.3456
G1 X10.475 Y217.188 E10.35858
G1 X10.13 Y216.897 E10.36944
G1 X9.936 Y216.728 E10.37563
G1 X9.753 Y216.563 E10.38155
G1 X9.35 Y216.172 E10.39506
G1 X9.037 Y215.846 E10.40593
G1 X8.826 Y215.618 E10.4134
G1 X8.662 Y215.433 E10.41934
G1 X8.402 Y215.123 E10.42907
G1 X8.185 Y214.851 E10.43744
G1 X7.939 Y214.527 E10.44723
G1 X7.735 Y214.242 E10.45566
G1 X7.451 Y213.816 E10.46797
G1 X7.212 Y213.431 E10.47887
G1 X6.992 Y213.054 E10.48936
G1 X6.825 Y212.748 E10.49775
G1 X6.634 Y212.374 E10.50785
G1 X6.483 Y212.058 E10.51627
G1 X6.324 Y211.703 E10.52563
G1 X6.189 Y211.38 E10.53405
G1 X6.028 Y210.96 E10.54486
G1 X5.913 Y210.633 E10.5532
G1 X5.795 Y210.27 E10.56238
G1 X5.695 Y209.934 E10.57081
G1 X5.591 Y209.548 E10.58043
G1 X5.509 Y209.21 E10.58879
G1 X5.412 Y208.751 E10.60007
G1 X5.35 Y208.406 E10.6085
G1 X5.292 Y208.032 E10.61761
G1 X5.247 Y207.686 E10.626
G1 X5.213 Y207.378 E10.63345
G1 X5.191 Y207.133 E10.63937
G1 X5.165 Y206.725 E10.6492
G1 X5.144 Y206.16 E10.6628
G1 X5.139 Y205.87 E10.66977
G1 X5.14 Y151.538 E11.97646
G1 X5.14 Y42.615 E14.59607
G1 X5.139 Y29 E14.92351
G1 X5.146 Y28.674 E14.93135
G1 X5.157 Y28.411 E14.93768
G1 X5.167 Y28.221 E14.94226
G1 X5.19 Y27.874 E14.95062
G1 X5.242 Y27.357 E14.96312
G1 X5.302 Y26.908 E14.97401
G1 X5.346 Y26.618 E14.98107
G1 X5.388 Y26.374 E14.98702
G1 X5.49 Y25.879 E14.99918
G1 X5.595 Y25.441 E15.01001
G1 X5.714 Y25.001 E15.02097
G1 X5.815 Y24.667 E15.02936
G1 X5.946 Y24.272 E15.03937
G1 X6.065 Y23.943 E15.04779
G1 X6.162 Y23.688 E15.05435
G1 X6.254 Y23.459 E15.06028
G1 X6.416 Y23.086 E15.07006
G1 X6.563 Y22.769 E15.07847
G1 X6.758 Y22.376 E15.08902
G1 X6.923 Y22.067 E15.09744
G1 X7.112 Y21.735 E15.10663
G1 X7.291 Y21.436 E15.11501
G1 X7.51 Y21.09 E15.12486
G1 X7.705 Y20.8 E15.13326
G1 X7.962 Y20.44 E15.1439
G1 X8.172 Y20.163 E15.15226
G1 X8.434 Y19.836 E15.16234
G1 X8.66 Y19.569 E15.17075
G1 X8.913 Y19.285 E15.1799
G1 X9.152 Y19.029 E15.18832
G1 X9.439 Y18.737 E15.19817
G1 X9.69 Y18.495 E15.20655
G1 X10.006 Y18.207 E15.21684
G1 X10.27 Y17.979 E15.22523
G1 X10.575 Y17.729 E15.23471
G1 X10.851 Y17.514 E15.24312
G1 X11.184 Y17.268 E15.25308
G1 X11.471 Y17.068 E15.26149
G0 F6000 X11.7 Y17.396
G1 F1200 X12.065 Y17.157 E15.27199
G1 X12.362 Y16.975 E15.28036
G1 X12.668 Y16.797 E15.28888
G1 X12.976 Y16.628 E15.29733
G1 X13.321 Y16.451 E15.30665
G1 X13.632 Y16.301 E15.31496
G1 X13.965 Y16.15 E15.32375
G1 X14.289 Y16.013 E15.33221
G1 X14.698 Y15.854 E15.34276
G1 X15.028 Y15.737 E15.35119
G1 X15.384 Y15.621 E15.36019
G1 X15.719 Y15.521 E15.3686
G1 X16.091 Y15.421 E15.37786
G1 X16.429 Y15.339 E15.38623
G1 X16.824 Y15.254 E15.39594
G1 X17.169 Y15.19 E15.40438
G1 X17.544 Y15.131 E15.41351
G1 X17.89 Y15.085 E15.42191
G1 X18.293 Y15.042 E15.43165
G1 X18.641 Y15.015 E15.44005
G1 X18.815 Y15.004 E15.44424
G1 X19.131 Y14.987 E15.45185
G1 X19.529 Y14.976 E15.46143
G1 X73.848 Y14.978 E16.76781
G1 X114.562 Y14.977 E17.74698
G1 X114.944 Y14.987 E17.75617
G1 X115.467 Y15.014 E17.76877
G1 X115.951 Y15.055 E17.78045
G1 X116.401 Y15.108 E17.79134
G1 X116.803 Y15.166 E17.80111
G1 X117.148 Y15.226 E17.80953
G1 X117.559 Y15.31 E17.81962
G1 X117.898 Y15.389 E17.82799
G1 X118.258 Y15.482 E17.83694
G1 X118.593 Y15.578 E17.84532
G1 X118.983 Y15.702 E17.85516
G1 X119.314 Y15.817 E17.86359
G1 X119.566 Y15.91 E17.87005
G1 X119.795 Y15.999 E17.87596
G1 X120.141 Y16.143 E17.88497
G1 X120.46 Y16.286 E17.89338
G1 X120.898 Y16.501 E17.90511
G1 X121.298 Y16.713 E17.916
G1 X121.582 Y16.871 E17.92382
G1 X121.793 Y16.995 E17.9297
G1 X122.1 Y17.186 E17.9384
G1 X122.393 Y17.378 E17.94682
G1 X122.698 Y17.589 E17.95574
G1 X122.979 Y17.794 E17.96411
G1 X123.307 Y18.048 E17.97408
G1 X123.578 Y18.27 E17.98251
G1 X123.862 Y18.514 E17.99151
G1 X124.121 Y18.749 E17.99993
G1 X124.412 Y19.028 E18.00962
G1 X124.657 Y19.276 E18.01801
G1 X124.934 Y19.573 E18.02777
G1 X125.165 Y19.834 E18.03615
G1 X125.404 Y20.118 E18.04508
G1 X125.623 Y20.392 E18.05352
G1 X125.863 Y20.709 E18.06308
G1 X126.066 Y20.993 E18.07148
G1 X126.296 Y21.334 E18.08137
G1 X126.483 Y21.629 E18.08977
G1 X126.654 Y21.913 E18.09774
G1 X126.827 Y22.215 E18.10611
G1 X127.079 Y22.694 E18.11913
G1 X127.276 Y23.105 E18.13009
G1 X127.427 Y23.443 E18.13899
G1 X127.562 Y23.765 E18.14739
G1 X127.724 Y24.184 E18.15819
G1 X127.839 Y24.513 E18.16658
G1 X127.946 Y24.844 E18.17494
G1 X128.046 Y25.18 E18.18337
G1 X128.144 Y25.546 E18.19249
G1 X128.226 Y25.884 E18.20085
G1 X128.318 Y26.316 E18.21147
G1 X128.38 Y26.66 E18.21988
G1 X128.425 Y26.943 E18.22677
G1 X128.459 Y27.185 E18.23265
G1 X128.496 Y27.495 E18.24016
G1 X128.53 Y27.843 E18.24857
G1 X128.56 Y28.302 E18.25963
G1 X128.58 Y28.869 E18.27327
G1 X128.585 Y29.13 E18.27955
G1 X128.584 Y83.462 E19.58624
G1 X128.584 Y192.385 E22.20585
G1 X128.585 Y206 E22.53329
G1 X128.579 Y206.309 E22.54072
G1 X128.568 Y206.572 E22.54705
G1 X128.558 Y206.752 E22.55139
G1 X128.535 Y207.099 E22.55975
G1 X128.486 Y207.59 E22.57162
G1 X128.426 Y208.039 E22.58251
G1 X128.384 Y208.314 E22.5892
G1 X128.342 Y208.558 E22.59516
G1 X128.245 Y209.028 E22.6067
G1 X128.14 Y209.466 E22.61753
G1 X128.027 Y209.883 E22.62792
G1 X127.926 Y210.217 E22.63632
G1 X127.802 Y210.592 E22.64582
G1 X127.683 Y210.921 E22.65423
G1 X127.591 Y211.163 E22.66046
G1 X127.499 Y211.392 E22.66639
G1 X127.345 Y211.746 E22.67568
G1 X127.198 Y212.063 E22.68408
G1 X127.026 Y212.411 E22.69342
G1 X126.863 Y212.719 E22.7018
G1 X126.658 Y213.081 E22.7118
G1 X126.477 Y213.381 E22.72023
G1 X126.285 Y213.682 E22.72881
G1 X126.091 Y213.971 E22.73719
G1 X125.841 Y214.321 E22.74753
G1 X125.63 Y214.599 E22.75592
G1 X125.384 Y214.906 E22.76538
G1 X125.158 Y215.173 E22.7738
G1 X124.919 Y215.442 E22.78245
G1 X124.68 Y215.698 E22.79087
G1 X124.407 Y215.975 E22.80023
G1 X124.156 Y216.217 E22.80861
G1 X123.867 Y216.481 E22.81803
G1 X123.604 Y216.709 E22.8264
G1 X123.294 Y216.964 E22.83605
G1 X123.017 Y217.179 E22.84449
G1 X122.711 Y217.404 E22.85362
G1 X122.424 Y217.604 E22.86203
G1 X122.065 Y217.839 E22.87235
G1 X121.767 Y218.022 E22.88076
G1 X121.465 Y218.198 E22.88917
G1 X121.16 Y218.366 E22.89754
G1 X120.788 Y218.557 E22.9076
G1 X120.475 Y218.707 E22.91595
G1 X120.141 Y218.857 E22.92475
G1 X119.817 Y218.993 E22.9332
G1 X119.445 Y219.138 E22.94281
G1 X119.115 Y219.256 E22.95124
G1 X118.745 Y219.377 E22.9606
G1 X118.411 Y219.477 E22.96898
G1 X118.049 Y219.576 E22.97801
G1 X117.71 Y219.659 E22.9864
G1 X117.283 Y219.75 E22.9969
G1 X116.939 Y219.813 E23.00531
G1 X116.581 Y219.869 E23.01403
G1 X116.235 Y219.915 E23.02242
G1 X115.831 Y219.958 E23.03219
G1 X115.482 Y219.985 E23.04061
G1 X115.309 Y219.996 E23.04478
G1 X114.993 Y220.013 E23.05239
G1 X114.595 Y220.024 E23.06197
G1 X60.276 Y220.022 E24.36834
G1 X19.562 Y220.023 E25.34752
G1 X19.18 Y220.013 E25.35671
G1 X18.657 Y219.986 E25.3693
G1 X18.173 Y219.945 E25.38099
G1 X17.723 Y219.892 E25.39188
G1 X17.321 Y219.834 E25.40165
G1 X16.976 Y219.774 E25.41007
G1 X16.565 Y219.69 E25.42016
G1 X16.226 Y219.611 E25.42853
G1 X15.866 Y219.518 E25.43748
G1 X15.531 Y219.422 E25.44586
G1 X15.141 Y219.298 E25.4557
G1 X14.81 Y219.183 E25.46413
G1 X14.558 Y219.09 E25.47059
G1 X14.329 Y219.001 E25.4765
G1 X13.983 Y218.857 E25.48551
G1 X13.664 Y218.714 E25.49392
G1 X13.306 Y218.541 E25.50348
G1 X12.995 Y218.381 E25.51189
G1 X12.645 Y218.189 E25.52149
G1 X12.344 Y218.013 E25.52988
G1 X12.013 Y217.808 E25.53924
G1 X11.721 Y217.616 E25.54765
G1 X11.418 Y217.406 E25.55651
G1 X11.135 Y217.199 E25.56494
G1 X10.733 Y216.883 E25.57724
G1 X10.388 Y216.592 E25.5881
G1 X10.204 Y216.431 E25.59398
G1 X10.021 Y216.266 E25.5999
G1 X9.638 Y215.895 E25.61273
G1 X9.325 Y215.569 E25.6236
G1 X9.126 Y215.353 E25.63066
G1 X8.962 Y215.168 E25.6366
G1 X8.714 Y214.874 E25.64586
G1 X8.497 Y214.602 E25.65422
G1 X8.265 Y214.294 E25.6635
G1 X8.061 Y214.009 E25.67193
G1 X7.791 Y213.605 E25.68361
G1 X7.552 Y213.22 E25.69451
G1 X7.343 Y212.862 E25.70448
G1 X7.176 Y212.556 E25.71287
G1 X6.995 Y212.202 E25.72243
G1 X6.844 Y211.886 E25.73085
G1 X6.693 Y211.549 E25.73973
G1 X6.558 Y211.226 E25.74815
G1 X6.405 Y210.827 E25.75843
G1 X6.29 Y210.5 E25.76676
G1 X6.178 Y210.156 E25.77547
G1 X6.078 Y209.82 E25.7839
G1 X5.98 Y209.454 E25.79301
G1 X5.898 Y209.116 E25.80137
G1 X5.806 Y208.68 E25.81209
G1 X5.744 Y208.335 E25.82052
G1 X5.689 Y207.98 E25.82916
G1 X5.644 Y207.634 E25.83755
G1 X5.612 Y207.342 E25.84462
G1 X5.59 Y207.097 E25.85053
G1 X5.565 Y206.71 E25.85986
G1 X5.544 Y206.145 E25.87346
G1 X5.539 Y205.87 E25.88007
G1 X5.54 Y151.538 E27.18676
G1 X5.54 Y42.615 E29.80637
G1 X5.539 Y29 E30.13381
G1 X5.545 Y28.691 E30.14124
G1 X5.556 Y28.428 E30.14757
G1 X5.566 Y28.248 E30.15191
G1 X5.589 Y27.901 E30.16027
G1 X5.638 Y27.41 E30.17214
G1 X5.698 Y26.961 E30.18303
G1 X5.74 Y26.686 E30.18972
G1 X5.782 Y26.442 E30.19568
G1 X5.879 Y25.972 E30.20722
G1 X5.984 Y25.534 E30.21805
G1 X6.097 Y25.117 E30.22844
G1 X6.198 Y24.783 E30.23684
G1 X6.322 Y24.408 E30.24633
G1 X6.441 Y24.079 E30.25475
G1 X6.533 Y23.837 E30.26098
G1 X6.625 Y23.608 E30.26691
G1 X6.779 Y23.254 E30.27619
G1 X6.926 Y22.937 E30.2846
G1 X7.111 Y22.564 E30.29461
G1 X7.276 Y22.255 E30.30304
G1 X7.455 Y21.94 E30.31175
G1 X7.634 Y21.641 E30.32013
G1 X7.842 Y21.313 E30.32947
G1 X8.037 Y21.023 E30.33788
G1 X8.281 Y20.681 E30.34798
G1 X8.491 Y20.404 E30.35634
G1 X8.74 Y20.094 E30.3659
G1 X8.966 Y19.827 E30.37432
G1 X9.205 Y19.558 E30.38297
G1 X9.444 Y19.302 E30.39139
G1 X9.717 Y19.025 E30.40075
G1 X9.968 Y18.783 E30.40913
G1 X10.267 Y18.51 E30.41887
G1 X10.531 Y18.282 E30.42726
G1 X10.82 Y18.044 E30.43626
G1 X11.096 Y17.829 E30.44468
G1 X11.413 Y17.596 E30.45414
G1 X11.7 Y17.396 E30.46255
G0 F6000 X11.929 Y17.724
G1 F1200 X12.274 Y17.499 E30.47246
G1 X12.571 Y17.317 E30.48084
G1 X12.861 Y17.148 E30.48891
G1 X13.169 Y16.979 E30.49736
G1 X13.495 Y16.811 E30.50618
G1 X13.806 Y16.661 E30.51448
G1 X14.121 Y16.519 E30.52279
G1 X14.445 Y16.382 E30.53125
G1 X14.832 Y16.231 E30.54124
G1 X15.162 Y16.114 E30.54966
G1 X15.499 Y16.004 E30.55819
G1 X15.834 Y15.904 E30.5666
G1 X16.186 Y15.809 E30.57536
G1 X16.524 Y15.727 E30.58373
